X:1
T:Transcendental Étude
T:Transcendental Étude
T:No. 10 "Appassionata"
T:Franz Liszt
C:Franz Liszt
%%score { ( 1 3 ) | ( 2 4 5 ) }
L:1/8
Q:1/4=104
M:2/4
K:Ab
V:1 treble nm="鋼琴" snm="Pno."
V:3 treble 
V:2 bass 
V:4 bass 
V:5 bass 
V:1
"^Allegro agitato molto""^[]" x!p![Q:1/4=80] x[Q:1/4=94] x x[Q:1/4=86][Q:1/4=90] | x x x x | %2
[Q:1/4=80] z"^ten." (3=B,/[FA]/C/ z"^ten." (3D/[=EG]/C/ | z!p![Q:1/4=94] x x x | x x x x | %5
[Q:1/4=80] z (3=B,/[FA]/C/ z (3D/[=EG]/C/ | z (3=B,/[FA]/D/ (3(.!^![Cc].!^![Aa].!^![Ff]) | %7
 z (3=D/[Ac]/E/ z (3_F/[GB]/E/ | z (3=D/[Ac]/F/ (3(.!^![Ee].!^![cc'].!^![Aa]) | %9
"_cresc." z (3^^F/[^c=e]/^G/ z (3=A/[^B^d]/G/ | %10
 z (3^^F/[^c=e]/^G/ !wedge!!^![^g^g'] (3:2:2(.!^![e=e'].!^![c^c']/) | %11
 z (3^^F/[^c=e]/^G/ z (3=A/[^B^d]/G/ | !wedge!!^![_a=d'_a'][Q:1/4=94]"^string." x x x | %13
!f! !wedge!!^![=B=da][I:staff +1] (3F,/G,/F,/[I:staff -1](3F/G/F/(3f/g/f/ | %14
 !wedge!!^!a'"^string." x x x | %15
!f! !wedge!!^![cfa][I:staff +1] (3F,/G,/F,/[I:staff -1](3F/G/F/(3f/g/f/ | %16
 !wedge!!^!a'[Q:1/4=80] (3(f/_g'/f'/(3e'/f/e/(3d/e'/d'/ | (3_c'/d/_c/(3B/c'/b/(3a/B/A/(3_G/a/_g/ | %18
 (3f/_G/F/ (3=E/)^d/=e/(3F/=g/f/ (3=B,/^A/=B/ | !wedge!!^!c[Q:1/4=94] x x x | x x[K:bass] x x | %21
[K:treble]"^accentuato ed appasionato assai"[Q:1/4=80] z/ (!>![=B=b]!^![cc']/) z/ (!>![dd']!^![cc']/) | %22
 (3z (.!^![=B=b].!^![dd'] (3.!^![cc'].!^![aa'].!^![ff']) | z4 | %24
 z/ (!>![=B=b]!^![cc']/) z/ (!>![dd']!^![cc']/) | %25
 (3z!p!!<(! (.!^![=B=b].!^![dd'] (3.!^![cc']!<)!!mp!.!^![aa'].!^![ff']) | %26
 z/ (!>![=d=d']!^![ee']/) z/ (!>![_f_f']!^![ee']/) | %27
!8va(! (3z!p!!<(! (.!^![=d=d'].!^![_f_f'] (3.!^![ee']!<)!!mf!.!^![_c'_c''].!^![aa']) | %28
"_più rinforz." z/ (!>![=f=f']!^![_g_g']/) z/ (!>![__a__a']!^![gg']/) | %29
 z/ (!>![=f=f']!^![_g_g']/) (3.!^![__b__b'].!^![__a__a']3/2.!^![gg']/ | %30
!ff! [e'e'']2 (.[e'e'']>.[e'e'']) | [e'e'']2 [=d'=d'']2- | %32
 [d'd'']!<(!(.[_d'_d''].[e'e''].[_f'_f''])!<)! | %33
!ff! (!>![_g'_g'']>[e'e'']) !wedge![_c'_c'']!8va)! z |!ff! [ee']2 (.[ee']>.[ee']) | %35
!ff! [ee']2 !>![=d=d']2- | [=d=d'](.[^^c^^c'].[^d^d'].[^e^e']) | %37
 !tenuto!.[^g^g'] [^f^f']2 [=e=e']- | [ee'] [^d^d']- [dd']/([^^c^^c']/[dd']/[^e^e']/) | %39
!8va(! (3(.[^g^g'].[^f^f'])!>![=b=b']-"_cresc." (3[bb'][=e=e'][bb']- | %40
[Q:1/4=76] (3[bb'][^d^d']!>![=b=b']-[Q:1/4=72] [bb']/[Q:1/4=68][=d=d']/[Q:1/4=64]!wedge!!^![_c'_c'']/[Q:1/4=9] !fermata!z/4[Q:1/4=52] [_b_b']/4 | %41
!ff![Q:1/4=78] !wedge!!^![_eb_e']!8va)![Q:1/4=94]"^string." x x x | %42
 !wedge!!^![ce=a][I:staff +1] (3_G,/_A,/G,/[I:staff -1](3_G/_A/G/(3_g/_a/!ff!g/ | %43
 !wedge!!^!_g'"^string." x x x | %44
 !wedge!!^![ce=a][I:staff +1] (3_G,/_A,/G,/[I:staff -1](3_G/_A/G/(3_g/_a/!ff!g/ | %45
!8va(! (3!>!_g'/a'/g'/(3_g/a/g/(3!>!a'/b'/a'/(3a/b/a/ | %46
 (3_c''/b'/b/ (3b'/a'/a/ (3a'/_g'/_g/ (3g'/f'/f/ | !wedge!!^![ee']!8va)!"^string." x x x | %48
 !wedge!!^![CE=A]!<(! (3E/F/E/(3e/f/e/(3e'/f'/!<)!!ff!e'/- | !wedge!!^![e'e'']"^string." x x x | %50
 !wedge!!^![CE=A]!<(! (3E/F/E/(3e/f/e/(3e'/f'/!<)!!ff!e'/ | %51
!8va(! (3!>!e''/f''/e''/(3e'/f'/e'/(3!>!d''/e''/d''/(3d'/e'/d'/ | %52
[Q:1/4=90] (3_c''/b'/b/[Q:1/4=86] (3b'/a'/a/[Q:1/4=82] (3a'/_g'/_g/[Q:1/4=78] (3g'/f'/f/!8va)! | %53
[Q:1/4=80]!ff! (3E/[_Ge]/B/(3e/[_ge']/b/!8va(!(3e'/[_g'e'']/b'/!8va)! z | %54
 (3=D/[F=d]/A/(3d/[f=d']/a/!8va(!(3d'/[f'=d'']/a'/!8va)! z | %55
 (3_D/[_F_d]/=G/(3d/[_fd']/g/!8va(!(3d'/[_f'd'']/g'/!8va)! z | %56
 (3C/c/E/(3c/[ec']/_g/!8va(!(3c'/[e'c'']/_g'/!8va)! z | %57
!ff! (3=B,/[=D=B]/F/(3B/[=d=b]/f/!8va(!(3=b/[=d'=b']/f'/!8va)! z | %58
 (3_B,/[_D_B]/=E/(3B/[db]/=e/!8va(!(3b/[d'b']/=e'/!8va)! z | %59
[Q:1/4=76] (3=A,/[C=A]/_E/[Q:1/4=72](3A/[c=a]/e/[Q:1/4=68](3a/[c'=a']/e'/[Q:1/4=64] z | %60
[Q:1/4=80]!mf! z (3^F,/[=B,=D]/G,/ z (3A/[=B=d]/G/ | %61
 (3z!<(! (.!^![^F^f].!^![Aa] (3.!^![Gg].!^![ee']!<)!!f!.!^![cc']) | %62
!mf! z (3^F,/[=B,=D]/G,/ z (3A/[=B=d]/G/ | %63
 (3z!<(! (.!^![=B=b].!^![_d_d'] (3.!^![cc'].!^![gg']!<)!!f!.!^![=e=e']) | %64
!mf! z (3=B,/[FA]/C/ z (3d/[=eg]/c/ |"_cresc." z (3=B,/[FA]/C/ z (3__e/[fa]/d/ | %66
[Q:1/4=84] z (3C/[_GB]/D/ z (3_f/[=gb]/e/ |[Q:1/4=88] z (3=D/[FA]/E/ z (3_g/[=ac']/f/ | %68
[Q:1/4=92] (3z!8va(! !^![=eb=e']!^![fbf'](3!^![_gb_g']!^![=g=g']!^![aa'] | %69
[Q:1/4=96] (3z"^simile"!<(! !^![=af'=a']!^![bf'b'](3!^![=bf'=b']!^![c'c'']!<)!!^![d'd''] | %70
 (3z !^![=e=b=e']!^![fbf'](3!^![^fb^f']!^![gg']!^![^g^g'] | %71
 (3z!<(! !^![=a=f'=a']!^![^af'^a'](3!^![=bf'=b']!^![^c'^c'']!<)!!^![=d'=d'']!8va)! | %72
!f!!8va(!"_più rinforz." (3:2:2!wedge!!^![^d'=b'^d''] _b'/(3d'/^f'/=b/!8va)!(3^d'/^f/b/(3^d/f/=B/ | %73
!8va(! (3:2:2!wedge!!^![=e'c''=e''] c''/(3e'/g'/c'/(3e'/g/c'/(3=e/!8va)!g/c/ | %74
!ff!!8va(! (3:2:2!wedge!!^![f'_d''f''] d''/(3f'/a'/d'/(3f'/a/d'/(3f/!8va)!a/d/ | %75
"_non dim."[Q:1/4=88] (3f/A/d/[Q:1/4=84](3F/A/D/[Q:1/4=80](3F/[I:staff +1]A,/D/[Q:1/4=76](3F,/A,/D,/ | %76
[Q:1/4=72][I:staff -1] x4[Q:1/4=68][Q:1/4=64][Q:1/4=60] | %77
"_tempestuoso"[Q:1/4=84] (3z[I:staff +1] [=E,G,=B,][E,G,C][Q:1/4=88][I:staff -1] (3z[I:staff +1] [^E,^G,=D][E,G,^C] | %78
"_simile"[Q:1/4=92][I:staff -1] (3z[I:staff +1] [^F,=A,^B,][F,A,^C][Q:1/4=96][I:staff -1] (3z[I:staff +1] [=F,_A,_E][F,A,_D] | %79
[Q:1/4=100][I:staff -1] (3z [=B,=EG=B][CEGc][Q:1/4=104] (3z [=D^E^G=d][^CEG^c] | %80
[Q:1/4=108] (3z [^B,^F^B][^CF^c][Q:1/4=112] (3z [_E=F_A_e][_DFA_d] | %81
[Q:1/4=116]"_cresc. molto" (3z [=B=eg=b][cegc'][Q:1/4=120] (3z [=d^e^g=d'][^ceg^c'] | %82
[Q:1/4=124] (3z [^B^f^b][^cf^c'][Q:1/4=128] (3z [_e=f_a_e'][_dfa_d'] | %83
[Q:1/4=132] (3z!8va(! [=b=e'g'=b'][c'e'g'c''] (3z [=d'^e'^g'=d''][^c'e'g'^c''] | %84
 (3z [^b^f'^b'][^c'f'^c''] (3z [_e'=f'_a'_e''][_d'f'a'_d''] | %85
[Q:1/4=72] !arpeggio!!wedge!!^![_b=e'g'd'']!8va)![Q:1/4=94] x x x | x x x x | %87
[I:staff +1] (3[F,A,D]/[I:staff -1]x/!mp![I:staff +1][F,A,D]/[I:staff -1] (3x/[I:staff +1] [F,A,D]/[I:staff -1] x/[I:staff +1] (3[F,A,D]/[I:staff -1]x/[I:staff +1][F,A,D]/[I:staff -1] (3x/[I:staff +1] [F,A,D]/[I:staff -1] x/ | %88
[Q:1/4=86]"^poco rall."[I:staff +1] (3[F,A,D]/[I:staff -1]x/[Q:1/4=78][I:staff +1][F,A,D]/[I:staff -1] (3x/[Q:1/4=70][I:staff +1] [F,A,D]/[I:staff -1] x/[Q:1/4=62][I:staff +1] (3[F,A,D]/[I:staff -1]x/[Q:1/4=54][I:staff +1][F,A,D]/[I:staff -1] (3x/[Q:1/4=46][I:staff +1] [F,A,D]/[I:staff -1] x/ | %89
[Q:1/4=80]"^a tempo"!p! z (3:2:2(!>![=B=b]!^![cc']/) z (3:2:2(!>![dd']!^![cc']/) | %90
 (3z (.!^![=B=b].!^![dd'] (3.!^![cc'].!^![aa'].!^![ff']) | z4 | %92
 z (3:2:2(!>![=B=b]!^![cc']/) z (3:2:2(!>![dd']!^![cc']/) | %93
 (3z (.!^![=B=b].!^![dd'] (3.!^![cc'].!^![aa'].!^![ff']) | %94
 z!8va(! (3:2:2(!>![=d=d']!^![ee']/) z (3:2:2(!>![_f_f']!^![ee']/) | %95
 (3z (.!^![=d=d'].!^![ff'] (3.!^![ee'].!^![c'c''].!^![aa']) | %96
"_cresc." z (3:2:2(!>![^f^f']!^![gg']/) z (3:2:2(!>![aa']!^![gg']/) | %97
!mf![Q:1/4=76] z[Q:1/4=68] (3:2:2(.!^![^f^f'].!^![gg']/)[Q:1/4=52] (.!^![aa']/.!^![gg']/)[Q:1/4=44](3!wedge!!^![=f'=f'']/[Q:1/4=36]!fermata!z3/4[Q:1/4=30]!^![=e'=e'']/4[Q:1/4=10] | %98
!f![Q:1/4=60] !^![c'c'']2!8va)![Q:1/4=80] z2[Q:1/4=70] | %99
!p!"^accentuato ed appasionato"!8va(! !arpeggio!!^![c'c'']2 (.!^![c'c'']>.!^![c'c'']) | %100
 !^![c'c'']2 !>![=b=b']2- | !^![bb'](.!^![=b=b'].!^![c'c''].!^![=d'=d'']) | %102
 (!^![=e'=e'']>!^![c'c'']) !^![=a=a']2!8va)! | !^![cc']2 (.!^![cc']>.!^![cc']) | %104
 !^![cc']3 !^![=B=b]- | !^![Bb](.!^![cc'].!^![dd'].!^![ee']) |!mf! (!^![ff']>!^![dd']) !^![Aa]2 | %107
!8va(! !^![bb']2 (.!^![bb']>.!^![bb']) | !arpeggio!!>![bb']2- (3!^![bb']!^![aa']!^![ff']!8va)! | %109
 !>!!^![ff']2- !^![ff']/!^![ee']/!^![cc']/!^![__B__b]/ | %110
 !>![__B__b]2- !^![Bb]/!^![Aa]/!^![dd']/!^![ff']/ |!mf!!8va(! !^![_b_b']2 (.!^![bb']>.!^![bb']) | %112
 !>![bb']2- (3!^![bb']!^![aa']!^![ff']!8va)! | !>![ff']2- !^![ff']/!^![ee']/!^![cc']/!^![=A=a]/ | %114
 !>![=A=a]2- !^![Aa]/!^![Bb]/!^![dd']/!^![ff']/ | %115
!mf!"_poco a poco rinforz."!8va(! !^![bb']2 (.!^![bb']>.!^![bb']) | %116
 !>!!^![bb']2- !^![bb']/!^![gg']/!^![=e=e']/!^![dd']/ | !^![d'd'']2 (.!^![d'd'']>.!^![d'd'']) | %118
 !>![d'd'']2- (5:4:5!^![d'd'']/!^![bb']/!^![gg']/!^![=e=e']/!^![dd']/ | %119
 !^![bb']2 (.!^![bb']>.!^![bb']) | %120
 !>!!^![bb']2- (5:4:5!^![bb']/!^![gg']/!^![=e=e']/!^![dd']/!^![Bb]/ | %121
 !^![d'd'']2 (.!^![d'd'']>.!^![d'd'']) | !^![d'd'']!f! !^![d'd'']2 !^![d'd'']- | %123
 (3!^![d'd'']!^![d'd'']!^![d'd''] (3!^![d'd'']!^![d'd'']!^![d'd''] | %124
 !^![d'd'']/!^![d'd'']/!^![d'd'']/!^![d'd'']/ (6:4:6!^![d'd'']/!^![d'd'']/!^![d'd'']/!^![d'd'']/!^![d'd'']/!ff!!^![d'd'']/ | %125
"_disperato" z/ !tenuto!.!^![d'd''] !tenuto!.!^![c'c''] !tenuto!.!^![bb'] !tenuto!.!^![aa']/- | %126
!^![aa']/ !tenuto!.!^![gg'] !tenuto!.!^![ff'] !tenuto!.!^![ee'] !tenuto!.!^![dd']/!8va)! | %127
!f! (3z (!^![dd']!^![cc']) (3z (!^![=B=b]!^![cc']) | %128
!f! (3z (!^![dd']!^![cc']) (3z (!^![=B=b]!^![cc']) | %129
 z/!8va(! !tenuto!.!^![d'd''] !tenuto!.!^![c'c''] !tenuto!.!^![_b_b'] !tenuto!.!^![aa']/- | %130
 !^![aa']/ !tenuto!.!^![gg'] !tenuto!.!^![ff'] !tenuto!.!^![ee'] !tenuto!.!^![dd']/!8va)! | %131
!f! (3z (.!^![dd'].!^![cc'])"_cresc." [dd']/[=B=b]/[dd']/[_B_b]/ | %132
 [dd']/[=A=a]/[dd']/[_A_a]/ [dd']/[Gg]/[dd']/[Ff]/ |!ff! [dd'] [=E=e] !^![dd']2- | %134
[Q:1/4=72] [dd']2 !fermata!z[Q:1/4=94] !wedge!!^![B=ec'][Q:1/4=64][Q:1/4=56][Q:1/4=30] | %135
 !arpeggio!!wedge!!^![Fcf]"^string." x x x | %136
 !wedge!!^![=B=da][I:staff +1] (3A,/_B,/A,/!<(![I:staff -1](3A/_B/A/(3a/_b/!<)!!ff!a/- | %137
 !wedge!!^![aa']"^string." x x x | %138
 !wedge!!^![=B=da][I:staff +1] (3A,/_B,/A,/!<(![I:staff -1](3A/_B/A/(3a/_b/!<)!!ff!a/ | %139
!8va(! (3!>!a'/b'/a'/(3a/b/a/(3!>!b'/c''/b'/(3b/c'/b/ | %140
 (3d''/c''/c'/ (3c''/b'/b/ (3b'/a'/a/ (3a'/=g'/g/ | !wedge!!^![ff']!8va)!"^string." x x x | %142
 !wedge!!^![=B,=DA][I:staff +1] (3F,/!<(![I:staff -1]=E/F/(3F/=e/f/(3f/=e'/!<)!!ff!f'/ | %143
!8va(! !wedge!!^![f'f'']!8va)!"^string." x x x | %144
 !wedge!!^![=B,=DA][I:staff +1] (3F,/!<(![I:staff -1]=E/F/(3F/=e/f/(3f/=e'/!<)!!ff!f'/ | %145
[Q:1/4=90]!8va(! (3f'/f''/=e'/[Q:1/4=86](3=e''/_e'/_e''/[Q:1/4=82](3=d'/=d''/_d'/[Q:1/4=78](3_d''/c'/c''/ | %146
[Q:1/4=74] (3c'/c''/_c'/[Q:1/4=70](3_c''/b/b'/[Q:1/4=66](3=a/=a'/_a/[Q:1/4=62](3_a'/=g/g'/!8va)! | %147
!ff![Q:1/4=80] (3F/[Af]/"_marcato"c/(3f/[af']/c'/!8va(!(3f'/[a'f'']/c''/!8va)! z | %148
 (3=E/[G=e]/B/(3e/[g=e']/b/!8va(!(3e'/[g'=e'']/b'/!8va)! z | %149
 (3E/[_Ge]/=A/(3e/!<(![_ge']/=a/!8va(!(3e'/[_g'e'']/=a'/!<)!!8va)!!ff! z | %150
 (3=D/=d/F/(3d/[f=d']/a/!8va(!(3d'/[f'=d'']/a'/!8va)! z | %151
!ff! (3_D/[=E_d]/G/(3d/[=ed']/g/!8va(!(3d'/[=e'd'']/g'/!8va)! z | %152
 (3C/[_Ec]/_G/(3c/[ec']/_g/!8va(!(3c'/[e'c'']/_g'/!8va)! z | %153
 (3=B,/[__E=B]/F/(3B/!<(![=d=b]/f/!8va(!(3=b/[=d'=b']/f'/!<)!!8va)!!ff! z | %154
 (3_B,/_B/_D/(3B/[_db]/=e/!8va(!(3b/[d'b']/=e'/!8va)! z | %155
!f! (3=A,/[C=A]/!<(!_E/(3A/[c=a]/e/!8va(!(3a/[c'=a']/e'/!<)!!8va)!!ff! z | %156
!f! (3_A,/A/=B,/(3=D/[F=d]/!<(!A/(3A/[=Ba]/d/(3d/[f=d']/a/ | %157
!8va(! (3a/[=ba']/=d'/(3d'/[f'=d'']/a'/!<)!!ff!(3a'/[=b'a'']/d''/!8va)! z | %158
[Q:1/4=30] !fermata!z[Q:1/4=128]"_precipitatato"!8va(! !arpeggio!!wedge![f=b=d'a']!arpeggio!!wedge![_gc'e'=a']!arpeggio!!wedge![=g_d'=e'_b'] | %159
!arpeggio!!wedge![_a=d'f'=b']!arpeggio!!wedge![=ae'_g'c'']!arpeggio!!wedge![_b=e'=g'_d'']!arpeggio!!wedge![=bf'_a'=d''] | %160
!arpeggio!!wedge![c'_g'=a'_e'']!arpeggio!!wedge![_d'=g'_b'=e'']!arpeggio!!wedge![=d'_a'=b'f'']!8va)![Q:1/4=36] !fermata!x/ z | %161
!p![Q:1/4=106]"^Stretta"!<(! (3z/[K:bass] [D,D]/[C,C]/ (3z/ [=B,,=B,]/[C,C]/ (3z/ [D,D]/[C,C]/ (3z/ [B,,B,]/[C,C]/ | %162
 (3z/ [D,D]/[C,C]/ (3z/ [G,G]/[F,F]/ (3z/ [E,E]/[D,D]/ (3z/ [C,C]/[B,,B,]/ | %163
 (3z/ [B,,B,]/[A,,A,]/ (3z/ [D,D]/[C,C]/ (3z/ [A,,A,]/[G,,G,]/ (3z/ [D,D]/[C,C]/!<)! | %164
[K:treble]!mf!!<(! (3z/ [Dd]/[Cc]/ (3z/ [=B,=B]/[Cc]/ (3z/ [Dd]/[Cc]/ (3z/ [B,B]/[Cc]/ | %165
 (3z/ [Dd]/[Cc]/ (3z/ [Bb]/[Aa]/ (3z/ [Gg]/[Ff]/ (3z/ [Ee]/[Dd]/ | %166
 (3z/ [Dd]/[Cc]/ (3z/ [=B,=B]/[Cc]/ (3z/ [Dd]/[Cc]/ (3z/ [dd']/[cc']/!<)! | %167
[K:treble]!f!!8va(! (3z/ [d'd'']/[c'c'']/ (3z/ [bb']/[aa']/ (3z/ [gg']/[ff']/ (3z/ [ee']/[dd']/ | %168
 (3z/ [dd']/[cc']/ (3z/ [=B=b]/[cc']/!8va)! (3z/ [Dd]/[Cc]/ (3z/ [=B,=B]/[Cc]/ | %169
!<(! (3z/!8va(! [f'f'']/[d'd'']/ (3z/ [c'c'']/[aa']/ (3z/ [_g_g']/[ff']/!8va)! (3z/ [dd']/[Bb]/ | %170
[Q:1/4=102] (3z/ [dd']/[cc']/[Q:1/4=98] (3z/ [Aa]/[Ff]/[Q:1/4=94] (3z/ [Dd]/[Cc]/[Q:1/4=90] (3z/ [Aa]/[Q:1/4=86][Gg]/!<)! | %171
!ff![Q:1/4=88] !wedge![Ff]!wedge![ff']!8va(!!wedge![f'f'']!8va)! z/[I:staff +1] [F,F]/ | %172
!f![Q:1/4=96] (3!^![F,=B,=DF]!<(![F,B,DF][F,B,DF] [F,B,DF][I:staff -1] z!<)! | %173
!ff![Q:1/4=88] !wedge![Ff]!wedge![ff']!8va(!!wedge![f'f'']!8va)! z/[I:staff +1] [F,F]/ | %174
!f![Q:1/4=96] (3!^![F,_B,_DF]!<(![F,B,DF][F,B,DF] [F,B,DF][I:staff -1] z!<)! | %175
!ff![Q:1/4=88] !wedge![Ff]!wedge![ff']!8va(!!wedge![f'f'']!8va)! z/ F/ | %176
 !wedge![CF]!wedge![Ff]!wedge![ff'] z/ [CF]/ | !wedge![=B,F]!wedge![Ff]!wedge![ff'] z/ [B,F]/ | %178
[Q:1/4=94]!<(! [F,_B,F]2[Q:1/4=100] [FBf]2 |[Q:1/4=106]!8va(! [faf']2 [gc'=e'g']2 | %180
 [ac'f'a']2 [d'f'b'd'']2 | z2 [c'=e'g'c'']2 | [f'a'c''f'']2!8va)! z2!<)! | %183
!ff![Q:1/4=36] !fermata![Fcf]4 |] %184
V:2
 z[K:treble] (3[Acf]/[I:staff -1]([Bdg]/[I:staff +1][Acf]/[I:staff -1] (3[GBe]/[I:staff +1][Acf]/[I:staff -1][GBe]/[I:staff +1] (3[FAd]/[I:staff -1][Acf]/[I:staff +1][FAd]/ | %1
[I:staff -1] (3[EGc]/[I:staff +1][FAd]/[I:staff -1][EGc]/[I:staff +1] (3[DFB]/[I:staff -1][EGc]/[I:staff +1][DFB]/[I:staff -1] (3[CEA]/[I:staff +1][DFB]/[I:staff -1][CEA]/[I:staff +1] (3[B,DG]/[I:staff -1][CEA]/)[I:staff +1][B,DG]/ | %2
[K:bass]!ped! (3A,/C/F,/ z!ped-up!!ped! (3G,/B,/F,/ z!ped-up! | %3
!ped! (3A,/C/F,/!ped-up![K:treble]!<(! (3[Acf]/[I:staff -1]([Bdg]/[I:staff +1][Acf]/[I:staff -1] (3[GBe]/[I:staff +1][Acf]/[I:staff -1][GBe]/[I:staff +1] (3[FAd]/[I:staff -1][Acf]/[I:staff +1][FAd]/ | %4
[I:staff -1] (3[EGc]/!<)!!mf![I:staff +1][FAd]/[I:staff -1][EGc]/!>(![I:staff +1] (3[DFB]/[I:staff -1][EGc]/[I:staff +1][DFB]/[I:staff -1] (3[CEA]/[I:staff +1][DFB]/[I:staff -1][CEA]/[I:staff +1] (3[B,DG]/[I:staff -1][CEA]/)!>)!!p![I:staff +1][B,DG]/ | %5
[K:bass]!ped! (3A,/C/F,/ z!ped-up!!ped! (3G,/B,/F,/ z!ped-up! | %6
!ped! (3A,/C/F,/ z!ped-up!!ped! (6:4:6z/ (F,,/C,/F,/A,/=B,/)!ped-up! | %7
!ped! (3C/E/E,/ z!ped-up!!ped! (3_B,/D/E,/ z!ped-up! | %8
!ped! (3C/E/A,/ z!ped-up!!ped! (6:4:6z/ (A,,/E,/A,/C/E/)!ped-up! | %9
[K:treble]!ped! (3=E/^G/^G,/ z!ped-up!!ped! (3^D/^F/G,/ z!ped-up! | %10
!ped! (3=E/^G/^G,/ z!ped-up![K:bass]!ped! (6:4:6z/ (^G,,/=E,/^G,/^B,/^C/)!ped-up! | %11
[K:treble]!ped! (3=E/^G/^G,/ z!ped-up!!ped! (3^D/^F/G,/ z!ped-up! | %12
[K:bass]!ped! !wedge!!^![=B,,=F,_A,=D]!ped-up![K:treble] (3[Af]/[I:staff -1]([=B=dg]/!<(![I:staff +1][Af]/[I:staff -1] (3!>![GB=e]/[I:staff +1][Af]/[I:staff -1][GBe]/[I:staff +1] (3[Af]/[I:staff -1][Bdg]/)[I:staff +1][Af]/!<)! | %13
!ped! z[K:bass] [=B,,,F,,A,,=B,,][B,,,F,,A,,B,,][B,,,F,,A,,B,,]!ped-up! | %14
!ped! !wedge!!^![C,,F,,A,,C,]!ped-up![K:treble] (3[Acf]/[I:staff -1]([_B_dg]/!<(![I:staff +1][Acf]/[I:staff -1] (3!>![GB=e]/[I:staff +1][Acf]/[I:staff -1][GBe]/[I:staff +1] (3[Acf]/[I:staff -1][Bdg]/)[I:staff +1][Acf]/!<)! | %15
!ped! z[K:bass] [C,,F,,A,,C,][C,,F,,A,,C,][C,,F,,A,,C,]!ped-up! | %16
!ped! !wedge!!^![D,,F,,_C,D,]!ped-up![K:treble]!ped! ([A_c]/d/[_GB]/c/[FA]/B/ | %17
 [E_G]/A/[DF]/G/[_CE]/F/[B,D]/E/ | %18
 .[=A,_C])!ped-up![K:bass]!ped! (!>![=G,B,][A,=B,])!ped-up!!ped! ([D,,F,]!ped-up! | %19
!ped!!wedge!!^![C,,=E,])!ped-up![K:treble] (3!>![FAd]/[I:staff -1]([G_B_e]/[I:staff +1][FAd]/!>(![I:staff -1] (3[=EGc]/[I:staff +1][FAd]/[I:staff -1][EGc]/[I:staff +1] (3[DFB]/[I:staff -1][EGc]/[I:staff +1][DFB]/ | %20
[I:staff -1] (3[C_E_A]/[I:staff +1][DFB]/[I:staff -1][CEA]/[I:staff +1] (3[B,DG]/[I:staff -1][CEA]/[I:staff +1][B,DG]/[I:staff -1] (3[G,B,=E]/[I:staff +1][K:bass][A,CF]/!>)!!p![I:staff -1][G,B,E]/[I:staff +1] (3[=E,G,C]/[I:staff -1][F,A,D]/)[I:staff +1][E,G,C]/ | %21
!ped! (3(F,,/C,/A,/) (3(A,/F/C/)!ped-up!!ped! (3(F,,/=E,/B,/) (3(G,/=E/B,/)!ped-up! | %22
!ped! (3(F,,/C,/A,/)!>(! (3([A,C]/G/F/!ped-up!!ped! (3[G,B,]/F/_E/ (3[F,A,]/E/D/!ped-up! | %23
!ped! (3[E,G,]/D/C/ (3[D,F,]/C/B,/ (3[C,E,]/B,/A,/ (3[B,,D,]/A,/G,/)!>)!!ped-up! | %24
!ped! (3(F,,/C,/A,/) (3(A,/F/C/)!ped-up!!ped! (3(F,,/=E,/B,/) (3(G,/=E/B,/)!ped-up! | %25
!ped! (3(F,,/C,/A,/)!>(! (3([A,C]/G/F/!ped-up!!ped! (3[G,B,]/F/_E/ (3[F,A,]/E/D/)!>)!!ped-up! | %26
!ped! (3(E,,/_C,/A,/) (3(_C/A/E/)!ped-up!!ped! (3(E,,/D,/G,/) (3(B,/G/D/)!ped-up! | %27
!ped! (3(A,,/E,/_C/)[K:treble]!>(! (3([_CE]/B/A/!ped-up!!ped! (3[B,D]/A/_G/!>)! (3[A,C]/G/_F/)!ped-up! | %28
[K:bass]!ped! (3(_G,,/E,/_C/)[K:treble] (3(E/_c/_G/)!ped-up![K:bass]!ped! (3(G,,/_F,/B,/)[K:treble] (3(D/B/_F/)!ped-up! | %29
[K:bass]!ped! (3(_G,,/E,/_C/) (3(_G,/E/C/)!ped-up!!ped! (3(G,,/_F,/B,/) (3(F,/D/B,/)!ped-up! | %30
!ped! (3_C,/=A,/_G,/(3=C/A,/_G/[K:treble](3=C/=A/_G/(3c/C/A/!ped-up! | %31
[K:bass]!ped! (3_C,/_A,/F,/(3_C/A,/F/[K:treble](3_C/A/F/(3_c/C/A/!ped-up! | %32
[K:bass]!ped! (3_C,/=G,/_F,/(3B,/G,/_F/[K:treble](3B,/=G/_F/(3B/B,/G/!ped-up! | %33
[K:bass]!ped! (3_C,/_G,/E,/(3_C/G,/E/[K:treble](3_C/_G/E/(3_c/C/G/!ped-up! | %34
[K:bass]!ped! (3=B,,/=A,/^F,/(3=C/A,/!<(!^F/[K:treble](3C/=A/^F/(3c/C/A/!ped-up!!<)! | %35
[K:bass]!ped! (3=B,,/^G,/^E,/(3=B,/G,/^E/[K:treble](3=B,/^G/^E/(3=B/B,/G/!ped-up! | %36
[K:bass]!ped! (3^A,,/^G,/^E,/(3=B,/G,/^^C/!ped-up!!ped! (3^G,,/E,/^^C,/(3B,/E,/^^A,/!ped-up! | %37
!ped! (3!^!^F,,/^F,/ ^D,/(3^A,/F,/^D/!ped-up!!ped! (3!^!^G,,/^G,/ =E,/(3=B,/G,/=E/!ped-up! | %38
!ped! (3!^!^A,,/^A,/ ^F,/(3^D/A,/^F/!ped-up!!ped! (3!^!^G,,/^G,/ ^E,/(3=B,/G,/^^C/!ped-up! | %39
!ped! (3!^!^F,,/^F,/ ^D,/(3^A,/F,/^D/!ped-up!!ped! (3!^!^G,,/^G,/ =E,/(3=B,/G,/=E/!ped-up! | %40
!ped! (3!^!^A,,/^A,/ ^F,/(3^D/A,/^F/!ped-up!!ped! _B,,/4=F,/4_A,/4=D/4[K:treble] !wedge!!^!_c/ !fermata!z/4!ped-up! _B/4 | %41
!ped! !wedge!!^![_E,_G]!ped-up!!f! (3[=A_g]/[I:staff -1]([=ce_a]/[I:staff +1][Ag]/[I:staff -1] (3!>![cef]/[I:staff +1][Ag]/[I:staff -1][cef]/[I:staff +1] (3[Ag]/[I:staff -1][cea]/)[I:staff +1][Ag]/ | %42
!ped! z[K:bass] [E,,=A,,C,E,]!<(![E,,A,,C,E,][E,,A,,C,E,]!ped-up!!<)! | %43
!ped! !wedge!!^![E,,B,,E,]!ped-up![K:treble]!f! (3[=A_g]/[I:staff -1]([ce_a]/[I:staff +1][Ag]/[I:staff -1] (3!>![cef]/[I:staff +1][Ag]/[I:staff -1][cef]/[I:staff +1] (3[Ag]/[I:staff -1][cea]/)[I:staff +1][Ag]/ | %44
!ped! z[K:bass] [E,,=A,,C,E,]!<(![E,,A,,C,E,][E,,A,,C,E,]!ped-up!!<)! | %45
 [E,,B,,E,] z [_D,,F,,_C,_D,] z | [_G,,B,,D,_G,][A,,_C,F,A,][B,,E,G,B,][B,,=D,A,B,] | %47
!ped! !wedge!!^![E,_G,E]!ped-up!!f! (3[=A,_G]/[I:staff -1]([CEA]/[I:staff +1][A,G]/[I:staff -1] (3!>![CEF]/[I:staff +1][A,G]/[I:staff -1][CEF]/[I:staff +1] (3[A,G]/[I:staff -1][CEA]/)[I:staff +1][A,G]/ | %48
!ped! z [E,,_G,,=A,,C,E,][E,,G,,A,,C,E,][E,,G,,A,,C,E,]!ped-up! | %49
!ped! !wedge!!^![E,,_G,,B,,E,]!ped-up!!f! (3[=A,_G]/[I:staff -1]([CEA]/[I:staff +1][A,G]/[I:staff -1] (3!>![CEF]/[I:staff +1][A,G]/[I:staff -1][CEF]/[I:staff +1] (3[A,G]/[I:staff -1][CEA]/)[I:staff +1][A,G]/ | %50
!ped! z [E,,_G,,=A,,C,E,][E,,G,,A,,C,E,][E,,G,,A,,C,E,]!ped-up! | [E,,_G,,B,,E,] z [F,,A,,D,F,] z | %52
 [_G,,B,,D,_G,][A,,_C,F,A,][B,,E,G,B,][B,,=D,A,B,] | %53
!ped! !>!E,2"^marcato" !>![E,E] z/ !>!E,/!ped-up! |!ped! !>!=D,3 !>![=D,=D]!ped-up! | %55
!ped! !>!_D,!<(! !>![D,D]!>![E,E]!<)!!ff!!>![_F,_F]!ped-up! |!ped! !>!_G,3/2 x/ !>![C,C]2!ped-up! | %57
!ped! !>!=B,,2 !>![=B,,=B,] z/ !>!B,,/!ped-up! |!ped! !>!_B,,3 !>![B,,B,]!ped-up! | %59
!ped! !>!=A,,!<(! !>![=A,,=A,]!>![B,,B,]!<)!!ff!!>![C,C]!ped-up! | %60
!ped! (3(!>!=D,/=B,,/G,,/) z!ped-up!!ped! (3(=D/=B,/G,/) z!ped-up! | %61
!ped! (3!^!C,,/C,/ G,,/(3E,/C,/G,/(3E,/C/G,/(3E/E,/C/!ped-up! | %62
!ped! (3(=D,/=B,,/G,,/) z!ped-up!!ped! (3(=D/=B,/G,/) z!ped-up! | %63
!ped! (3!^!=E,,/=E,/ C,/(3G,/E,/C/(3G,/=E/C/(3G/G,/E/!ped-up! | %64
!ped! (3(A,/F,/C,/) z!ped-up!!ped! (3(_B,/=E,/C,/) z!ped-up! | %65
!ped! (3(C/A,/F,/) z!ped-up!!ped! (3(__E/A,/F,/) z!ped-up! | %66
!ped! (3(D/B,/_G,/) z!ped-up!!ped! (3(_F/B,/=G,/) z!ped-up! | %67
!ped! (3(E/C/A,/) z!ped-up!!ped! (3(_G/C/=A,/) z!ped-up! | %68
!ped! (3:2:2!>![D,D][K:treble] B/(3d/F/B/(3D/F/B,/(3D/F,/B,/!ped-up! | %69
[K:bass]!ped! (3:2:2!>![G,,G,][K:treble] B/(3d/F/B/(3D/F/B,/(3D/F,/B,/!ped-up! | %70
[K:bass]!ped! (3:2:2!>![=D,=D][K:treble] =B/(3=d/F/B/(3=D/F/=B,/(3D/F,/B,/!ped-up! | %71
[K:bass]!ped! (3:2:2!>![G,,G,][K:treble] =B/(3=d/F/B/(3=D/F/=B,/(3D/F,/B,/!ped-up! | %72
[K:bass]!ped! !>!!wedge![^F,,^F,][K:treble] z/ [^D^F=B^d]/ [DFBd]2!ped-up! | %73
[K:bass]!ped! !>!!wedge![=E,,=E,][K:treble] z/ [=EGc=e]/ [EGce]2!ped-up! | %74
[K:bass]!ped! !>!!wedge![=B,,,=B,,][K:treble] z/ [FAdf]/ [FAdf]2!ped-up! | %75
!ped! (3:2:2x x/ (3:2:2x x/ (3:2:2x/[K:bass] x (3:2:2x x/!ped-up! | %76
 .F,/.A,,/.D,/.F,,/ .A,,/.D,,/.F,,/ z/4!f! =B,,,/4 | (3=B,,,C,, z (3^A,,,=B,,, z | %78
 (3^G,,,=A,,, z (3_B,,,=B,,, z | (3[=B,,,=B,,][C,,C,] z (3[^A,,,^A,,][B,,,B,,] z | %80
 (3[^G,,,^G,,][=A,,,=A,,] z (3[_B,,,_B,,][=B,,,=B,,] z | %81
 (3[=B,,,=B,,][C,,C,] z (3[^A,,,^A,,][=B,,,=B,,] z | %82
 (3[^G,,,^G,,][=A,,,=A,,] z (3[_B,,,_B,,][=B,,,=B,,] z | %83
 (3[=B,,,=B,,][C,,C,] z (3[^A,,,^A,,][=B,,,=B,,] z | %84
 (3[^G,,,^G,,][=A,,,=A,,] z (3[_B,,,_B,,][=B,,,=B,,] z | %85
!ped! !wedge!!^![C,,C,]!ped-up![K:treble] (3!^![FAd]/!>(![I:staff -1][GB_e]/[I:staff +1][FAd]/[I:staff -1] (3[=EGc]/[I:staff +1][FAd]/[I:staff -1][EGc]/[I:staff +1] (3[DFB]/[I:staff -1][EGc]/[I:staff +1][DFB]/ | %86
[I:staff -1] (3[C_E_A]/[I:staff +1][DFB]/[I:staff -1][CEA]/[I:staff +1] (3[B,DG]/[I:staff -1][CEA]/[I:staff +1][B,DG]/[I:staff -1] (3[A,CF]/[I:staff +1][B,DG]/[I:staff -1][A,CF]/[I:staff +1] (3[G,B,=E]/[I:staff -1][A,CF]/[I:staff +1][G,B,E]/ | %87
[K:bass] (3x/ [G,B,_E]/!>)! x/"_dim." (3[=E,G,C]/x/[E,G,C]/ (3x/ [G,B,_E]/ z/ (3[=E,G,C]/x/[E,G,C]/ | %88
 (3x/ [G,B,_E]/ x/ (3[=E,G,C]/x/[E,G,C]/ (3x/ [G,B,_E]/ z/ (3[=E,G,C]/x/[E,G,C]/ | %89
!ped! (3!^!F,,/C,/A,/ (3A,/F/E/!ped-up!!ped! (3!^!F,,/=E,/B,/ (3G,/=E/B,/!ped-up! | %90
!ped! (3!^!F,,/C,/A,/ (3C/G/F/ (3B,/F/_E/ (3A,/E/D/!ped-up! | %91
!ped! (3G,/D/C/ (3F,/C/B,/ (3E,/B,/A,/ (3D,/A,/G,/!ped-up! | %92
!ped! (3!^!F,,/C,/A,/ (3A,/F/E/!ped-up!!ped! (3!^!F,,/=E,/B,/ (3G,/=E/B,/!ped-up! | %93
!ped! (3!^!F,,/C,/A,/ (3C/G/F/ (3B,/F/_E/ (3A,/E/D/!ped-up! | %94
!ped! (3!^!E,,/C,/A,/ (3C/A/E/!ped-up!!ped! (3!^!E,,/D,/G,/ (3B,/G/D/!ped-up! | %95
!ped! (3!^!A,,/E,/C/[K:treble] (3E/B/A/ (3D/A/G/ (3C/G/F/!ped-up! | %96
[K:bass]!ped! (3!^!G,,/=E,/C/ (3G,/=E/C/!ped-up!!ped! (3!^!G,,/=D,/=B,/ (3F,/=D/B,/!ped-up! | %97
!ped! (3!^!G,,/"^poco rit."=E,/C/ (3G,/=E/C/!ped-up!!ped! (3(!^!G,,/F,/=B,/[K:treble] (3=D/A/!fermata!=B/)!ped-up! | %98
[K:bass]!ped! (3!^!C,/C/!>(! G,/(3=E/C/G/[K:treble] (3=E/c/C/(3G/E/!>)!c/!ped-up! | %99
[K:bass]!ped! (3!^!=A,,/=A,/ =E,/(3C/A,/=E/[K:treble] (3C/=A/=E/(3c/C/A/!ped-up! | %100
[K:bass]!ped! (3!^!=A,,/^F,/^D,/(3C/[K:treble] =A,/^F/(3^D/=B/A,/(3F/D/B/!ped-up! | %101
[K:bass]!ped! (3!^!=A,,/^G,/=F,/(3=D/ G,/F/[K:treble](3=D/=B/^G,/(3F/D/B/!ped-up! | %102
[K:bass]!ped! (3!^!=A,,/=A,/ =E,/(3C/A,/=E/ (3C/=A/A,/(3E/C/A/!ped-up! | %103
!ped! (3!^!=A,,/=A,/ =E,/(3C/A,/=E/ (3C/=A/A,/(3E/C/A/!ped-up! | %104
!ped! (3!^!=A,,/_G,/_E,/(3=A,/ G,/_E/(3A,/_G/G,/(3E/A,/G/!ped-up! | %105
!ped! (3!^!_A,,/_G,/!<(!E,/(3__B,/ G,/E/(3A,/_G/G,/(3C/A,/G/!ped-up!!<)! | %106
!ped! (3!^!D,,/D,/ A,,/(3F,/D,/A,/ (3F,/D/A,/(3F/F,/D/!ped-up! | %107
!ped! (3!^!D,,/B,,/=G,,/(3=E,/ D,/B,/(3=G,/=E/D,/(3B,/G,/E/!ped-up! | %108
!ped! (3!^!D,,/D,/ A,,/(3F,/D,/A,/(3F,/D/A,/(3F/F,/D/!ped-up! | %109
!ped! (3!^!D,,/C,/__B,,/(3_G,/ C,/__B,/(3G,/E/C,/(3B,/G,/E/!ped-up! | %110
!ped! (3!^!D,,/D,/ A,,/(3F,/D,/!<(!A,/(3F,/D/A,/(3F/F,/D/!ped-up!!<)! | %111
!ped! (3!^!D,,/B,,/=G,,/(3=E,/ D,/B,/(3=G,/=E/D,/(3B,/G,/E/!ped-up! | %112
!ped! (3!^!D,,/D,/ A,,/(3F,/D,/A,/(3F,/D/A,/(3F/F,/D/!ped-up! | %113
!ped! (3!^!D,,/B,,/=A,,/(3_G,/ C,/=A,/(3G,/E/C,/(3A,/G,/E/!ped-up! | %114
!ped! (3!^!D,,/D,/ B,,/(3F,/D,/!<(!B,/(3F,/D/B,/(3F/F,/D/!ped-up!!<)! | %115
!ped! (3!^!D,,/B,,/=G,,/(3F,/ D,/B,/(3G,/F/D,/(3B,/G,/F/!ped-up! | %116
!ped! (3!^!C,,/B,,/G,,/(3=E,/ C,/B,/(3G,/=E/C,/(3B,/G,/E/!ped-up! | %117
!ped! (3!^!B,,,/G,,/F,,/(3D,/ B,,/G,/(3F,/D/B,,/(3G,/F,/D/!ped-up! | %118
!ped! (3!^!C,,/B,,/G,,/(3=E,/ C,/B,/(3G,/=E/C,/(3B,/G,/E/!ped-up! | %119
!ped! (3!^!D,,/D,/ B,,/(3_G,/D,/B,/(3G,/D/B,/(3_G/G,/D/!ped-up! | %120
!ped! (3!^!C,,/B,,/=G,,/(3=E,/ C,/B,/(3=G,/=E/C,/(3B,/G,/E/!ped-up! | %121
!ped! (3!^!B,,,/B,,/ D,/(3B,/_G,/D/ (3B,/_G/G,/(3D/B,/G/!ped-up! | %122
!ped! (3!^!__B,,,/__B,,/ _F,/(3D/=G,/_F/!ped-up!"^cresc. assai"!ped! (3!^!A,,,/A,,/ F,/(3D/A,/F/!ped-up! | %123
!ped! (3!^!=G,,,/!<(!=G,,/ =E,/(3D/=A,/=E/!ped-up!!ped! (3!^!_G,,,/_G,,/ E,/(3D/B,/E/!ped-up! | %124
!ped! (3!^!F,,,/F,,/ F,/(3D/B,/F/!ped-up!!ped! (3!^!=E,,,/=E,,/ A,/(3D/B,/!<)!G/!ped-up! | %125
!ped! (3!^!F,,,/F,,/ A,/(3F/C/A/!ped-up!!ped! (3!^!A,,,/A,,/ F,/(3C/A,/F/!ped-up! | %126
!ped! (3!^!B,,,/B,,/ F,/(3B,/G,/F/!ped-up!!ped! (3!^!B,,,/B,,/ F,/(3D/G,/F/!ped-up! | %127
!ped! (3!^!C,,/C,/!<(! F,/(3C/A,/F/ (3C/A/!<)!!ff!A,/(3F/C/A/!ped-up! | %128
!ped! (3!^!C,,/C,/!<(! =E,/(3B,/G,/=E/ (3B,/G/!<)!!ff!G,/(3E/B,/G/!ped-up! | %129
!ped! (3!^!F,,,/F,,/ C,/(3A,/F,/C/!ped-up!!ped! (3!^!A,,,/A,,/ F,/(3C/A,/F/!ped-up! | %130
!ped! (3!^!D,,/D,/ F,/(3B,/G,/F/!ped-up!!ped! (3!^!B,,,/B,,/ F,/(3D/G,/F/!ped-up! | %131
!ped! (3!^!C,,/C,/ F,/(3C/A,/F/ (3F,/=B,/A,/(3D/B,/F/!ped-up! | %132
!ped! (3F,/_B,/G,/(3D/B,/F/ z2!ped-up! | %133
!ped! (3z/ !^!C,,/B,,/(3=E,/G,/B,/(3=E/B,/G,/(3E,/B,,/C,,/ | %134
 (3G,,/B,,/=E,/[K:treble](3G,/B,/=E/ !wedge!!^!d/ !fermata!z/!ped-up![K:bass]!ped! !wedge!!^![C,G,B,=E]!ped-up! | %135
!ped! !wedge!!^![F,A,CA]!ped-up![K:treble]!f! (3[Af]/[I:staff -1]([=B=dg]/[I:staff +1][Af]/[I:staff -1] (3!>![Bd=e]/[I:staff +1][Af]/[I:staff -1][Bde]/[I:staff +1] (3[Af]/[I:staff -1][Bdg]/)[I:staff +1][Af]/ | %136
!ped! z[K:bass] [F,,=B,,=D,F,][F,,B,,D,F,][F,,B,,D,F,]!ped-up! | %137
!ped! !wedge!!^![F,,C,F,]!ped-up![K:treble]!f! (3[Af]/[I:staff -1]([=B=dg]/[I:staff +1][Af]/[I:staff -1] (3!>![Bd=e]/[I:staff +1][Af]/[I:staff -1][Bde]/[I:staff +1] (3[Af]/[I:staff -1][Bdg]/)[I:staff +1][Af]/ | %138
!ped! z[K:bass] [F,,=B,,=D,F,][F,,B,,D,F,][F,,B,,D,F,]!ped-up! | [F,,C,F,] z [E,,_D,G,] z | %140
 [A,,C,E,A,][B,,D,_G,B,][C,F,A,C][C,=E,B,C] | %141
!ped! !wedge!!^![F,,C,A,]!ped-up!!f! (3[A,F]/[I:staff -1]([=B,=DG]/[I:staff +1][A,F]/[I:staff -1] (3!>![B,D=E]/[I:staff +1][A,F]/[I:staff -1][B,DE]/[I:staff +1] (3[A,F]/[I:staff -1][B,DG]/)[I:staff +1][A,F]/ | %142
!ped! z [F,,,A,,,=B,,,=D,,F,,][F,,,A,,,B,,,D,,F,,][F,,,A,,,B,,,D,,F,,]!ped-up! | %143
!ped! !wedge!!^![F,,,A,,,C,,F,,]!ped-up!!f! (3[A,F]/[I:staff -1]([=B,=DG]/[I:staff +1][A,F]/[I:staff -1] (3!>![B,D=E]/[I:staff +1][A,F]/[I:staff -1][B,DE]/[I:staff +1] (3[A,F]/[I:staff -1][B,DG]/)[I:staff +1][A,F]/ | %144
!ped! z [F,,,A,,,=B,,,=D,,F,,][F,,,A,,,B,,,D,,F,,][F,,,A,,,B,,,D,,F,,]!ped-up! | %145
 [F,,,A,,,C,,F,,] z [G,,,_B,,,E,,G,,] z | %146
 [A,,,C,,E,,A,,][B,,,D,,_G,,B,,][C,,F,,A,,C,][C,,=E,,B,,C,] | %147
!ped! !>!F,2 !>![F,F]3/2 !>!F,/!ped-up! |!ped! !>!=E,3 !>![E,=E]!ped-up! | %149
!ped! !>!_E, !>![E,E]!>![F,F]!>![_G,_G]!ped-up! |!ped! !>!_A,3/2 x/ !>![=D,=D]2!ped-up! | %151
!ped! !>!_D,2 !>![D,D] z/ !>!D,/!ped-up! |!ped! !>!C,3 !>![C,C]!ped-up! | %153
!ped! !>!=B,, !>![B,,=B,]!>![C,C]!>![=D,=D]!ped-up! |!ped! !>!=E,3/2 x/ !>![B,,B,]2!ped-up! | %155
!ped! !>!=A,, !>![=A,,=A,]!>![B,,B,]!>![C,C]!ped-up! | %156
!ped! !>!!stemless!=D, !>![=B,,_A,]!>![F,=D][K:treble]!>![=B,A]!ped-up! | %157
!ped! !>![F=d]!>![=Ba]!>![f=d'] z!ped-up! | %158
 !fermata!z !wedge![=B,FA=d]!wedge![=A,E_Gc]!wedge![=G,_D=E_B] | %159
[K:bass] !wedge![F,=B,=D_A]!wedge![_E,=A,C_G]!wedge![_D,=G,_B,=E]!wedge![=B,,F,_A,=D] | %160
 !wedge![=A,,_E,_G,C]!wedge![=G,,_D,=E,_B,]!ped!!wedge![F,,=B,,=D,_A,] !fermata!x/!ped-up! !>![_D,,_D,] | %161
!8vb(! .[=E,,,G,,,=E,,].[F,,,A,,,F,,].[G,,,B,,,G,,].[E,,,G,,,E,,] | %162
 .[F,,,A,,,F,,].[A,,,C,,A,,].[B,,,F,,G,,].[D,,F,,G,,] | %163
 .[C,,F,,].[C,,F,,A,,] .[C,,=E,,].[C,,E,,B,,]!8vb)! | %164
"_stacc." .[=E,,G,,=E,].[F,,A,,F,].[G,,B,,G,].[E,,G,,E,] | %165
 .[F,,A,,F,] .[C,F,A,].[D,F,B,].[B,,F,G,] | .[C,F,A,] .[C,,F,,A,,C,] .[C,=E,B,] .[C,,=E,,A,,B,,] | %167
 .[F,,C,A,].[A,,F,C].[B,,F,D] .[F,B,F] | .[C,F,A,C] .[C,,F,,A,,C,] .[C,=E,B,] .[C,,=E,,A,,B,,] | %169
 .[F,,C,A,].[A,,F,C].[B,,F,D] .[F,B,F] | .[C,F,A,C] .[C,,F,,A,,C,] .[C,B,=E] .[C,,=E,,A,,B,,] | %171
!ped! [F,,A,,C,F,]2 !wedge![F,F] z/ F,,/!ped-up! | %172
!ped! (3[=B,,,=B,,][C,,C,][^C,,^C,] (3[=D,,=D,][^D,,^D,][=E,,=E,]!ped-up! | %173
!ped! [F,,F,]2 !wedge![F,F] z/ F,,/!ped-up! | %174
!ped! (3[_B,,,_B,,][=B,,,=B,,][C,,C,][_D,,D,]/[=D,,=D,]/[_E,,E,]/[=E,,=E,]/!ped-up! | %175
!ped! [F,,F,]2 !wedge![F,F] z/ F,,/!ped-up! | %176
!ped! [=A,,,=A,,]2 !wedge![F,F] z/ [F,,,F,,]/!ped-up! | %177
!ped! [_A,,,_A,,]2 !wedge![F,F] z/ [F,,,F,,]/!ped-up! | %178
!ped! [G,,,G,,]2!ped-up!!ped! [_G,,,_G,,]2!ped-up! | %179
!ped! [F,,,F,,]2!ped-up!!ped! [C,,=E,,G,,C,]2!ped-up! | %180
!ped! [F,,A,,C,F,]2!ped-up!!ped! [D,,F,,B,,D,]2 | z2!ped-up!!ped! [C,,=E,,G,,C,]2!ped-up! | %182
!ped! [F,,,A,,,C,,F,,]2 z2 | !fermata![A,C]4!ped-up! |] %184
V:3
 x4 | x4 | x (3:2:2(!>![=B,=B]!^![Cc]/) x (3:2:2(!>![Dd]!^![Cc]/) | x4 | x4 | %5
 x (3:2:2(!>![=B,=B]!^![Cc]/) x (3:2:2(!>![Dd]!^![Cc]/) | x (3:2:2(!>![=B,=B]!^![Dd]/) x2 | %7
 x (3:2:2(!>![=D=d]!^![Ee]/) x (3:2:2(!>![_F_f]!^![Ee]/) | x (3:2:2(!>![=D=d]!^![Ff]/) x2 | %9
 x (3:2:2(!>![^^F^^f]!^![^G^g]/) x (3:2:2(!>![=A=a]!^![Gg]/) | x (3:2:2(!>![^^F^^f]!^![^G^g]/) x2 | %11
 x (3:2:2(!>![^^F^^f]!^![^G^g]/) x (3:2:2(!>![=A=a]!^![Gg]/) | x4 | x4 | x4 | x4 | x4 | x4 | %18
 x (=EF/) x/ =B, | !^!C x3 | x2[K:bass] x2 |[K:treble] x4 | x4 | x4 | x4 | x4 | x4 |!8va(! x4 | %28
 x4 | x4 | x4 | x4 | x4 | x3!8va)! x | x4 | x4 | x4 | x4 | x4 |!8va(! x4 | x4 | x!8va)! x3 | x4 | %43
 x4 | x4 |!8va(! x4 | x4 | x!8va)! x3 | x4 | x4 | x4 |!8va(! x4 | x4!8va)! | %53
 E2!8va(! x!8va)! x/ E/ | =D3 x | D2!8va(! x!8va)! x | x2!8va(! x!8va)! x | %57
 =B,2!8va(! x!8va)! x/ B,/ | B,3 x | =A, x3 | %60
 x (3:2:2(!>![^F,^F]!^![G,G]/) x (3:2:2(!>![Aa]!^![Gg]/) | x4 | %62
 x (3:2:2(!>![^F,^F]!^![G,G]/) x (3:2:2(!>![Aa]!^![Gg]/) | x4 | %64
 x (3:2:2(!>![=B,=B]!^![Cc]/) x (3:2:2(!>![dd']!^![cc']/) | %65
 x (3:2:2(!>![=B,=B]!^![Cc]/) x (3:2:2(!>![__e__e']!^![dd']/) | %66
 x (3:2:2(!>![Cc]!^![Dd]/) x (3:2:2(!>![_f_f']!^![ee']/) | %67
 x (3:2:2(!>![=D=d]!^![Ee]/) x (3:2:2(!>![_g_g']!^![ff']/) | x2/3!8va(! x10/3 | x4 | x4 | %71
 x4!8va)! |!8va(! x2!8va)! x2 |!8va(! x10/3!8va)! x2/3 |!8va(! x10/3!8va)! x2/3 | x4 | x4 | x4 | %78
 x4 | x4 | x4 | x4 | x4 | x2/3!8va(! x10/3 | x4 | x!8va)! x3 | x4 | x4 | x4 | x4 | x4 | x4 | x4 | %93
 x4 | x!8va(! x3 | x4 | x4 | x4 | x2!8va)! x2 |!8va(! x4 | x4 | x4 | x4!8va)! | x4 | x4 | x4 | x4 | %107
!8va(! x4 | x4!8va)! | x4 | x4 |!8va(! x4 | x4!8va)! | x4 | x4 |!8va(! x4 | x4 | x4 | x4 | x4 | %120
 x4 | x4 | x4 | x4 | x4 | x4 | x4!8va)! | x4 | x4 | x/!8va(! x7/2 | x4!8va)! | x4 | x4 | x4 | x4 | %135
 x4 | x4 | x4 | x4 |!8va(! x4 | x4 | x!8va)! x3 | x4 |!8va(! x!8va)! x3 | x4 |!8va(! x4 | %146
 x4!8va)! | F2!8va(! x!8va)! x/ F/ | =E3 x | E2!8va(! x!8va)! x | x2!8va(! x!8va)! x | %151
 D2!8va(! x!8va)! x/ D/ | C3 x | =B, x!8va(! x!8va)! x | x2!8va(! x!8va)! x | %155
 =A, x!8va(! x!8va)! x | !^!=D2 x2 |!8va(! x3!8va)! x | x!8va(! x3 | x4 | x3!8va)! x3/2 | %161
 x/3[K:bass] x11/3 | x4 | x4 |[K:treble] x4 | x4 | x4 |[K:treble]!8va(! x4 | x2!8va)! x2 | %169
 x/3!8va(! x8/3!8va)! x | x4 | x2!8va(! x!8va)! x | x4 | x2!8va(! x!8va)! x | x4 | %175
 x2!8va(! x!8va)! x/[I:staff +1] !stemless!F,/ | !wedge!!stemless!F, x5/2 !stemless!F,/ | %177
 !wedge!!stemless!F, x5/2 !stemless!F,/ | x4 |!8va(! x4 | x4 | x4 | x2!8va)! x2 | x4 |] %184
V:4
 x[K:treble] x3 | x4 |[K:bass] F x =E x | F[K:treble] x3 | x4 |[K:bass] F x =E x | F x3 | A x G x | %8
 A x3 |[K:treble] ^c x ^B x | ^c x[K:bass] x2 |[K:treble] ^c x ^B x |[K:bass] x[K:treble] x3 | %13
 x[K:bass] x3 | x[K:treble] x3 | x[K:bass] x3 | x[K:treble] D2 x | x4 | x[K:bass] D,2 x | %19
 x[K:treble] x3 | x7/3[K:bass] x5/3 | x4 | x4 | x4 | x4 | x4 | x4 | x[K:treble] x3 | %28
[K:bass] x[K:treble] x[K:bass] x[K:treble] x |[K:bass] x4 | x2[K:treble] x2 | %31
[K:bass] x2[K:treble] x2 |[K:bass] x2[K:treble] x2 |[K:bass] x2[K:treble] x2 | %34
[K:bass] x2[K:treble] x2 |[K:bass] x2[K:treble] x2 |[K:bass] x4 | x4 | x4 | x4 | x3[K:treble] x | %41
 x4 | x[K:bass] x3 | x[K:treble] x3 | x[K:bass] x3 | x4 | x4 | x4 | x4 | x4 | x4 | x4 | x4 | %53
 !arpeggio!!>![E,,_G,,B,,] x3 | !arpeggio!!>![E,,F,,A,,_C,] x3 | !arpeggio!!>![E,,=G,,B,,] x3 | %56
 !arpeggio!!>![E,,=A,,C,] x3 | !arpeggio!!>![=D,,F,,_A,,] x3 | !arpeggio!!>![_D,,=E,,G,,] x3 | %59
 !arpeggio!!>![C,,_E,,^F,,] x3 | =B,,, x =B,, x | x4 | =B,,, x =B,, x | x4 | F,, x G,, x | %65
 A,, x _C, x | B,, x D, x | C, x E, x | x2/3[K:treble] x10/3 |[K:bass] x2/3[K:treble] x10/3 | %70
[K:bass] x2/3[K:treble] x10/3 |[K:bass] x2/3[K:treble] x10/3 |[K:bass] x[K:treble] x3 | %73
[K:bass] x[K:treble] x3 |[K:bass] x[K:treble] x3 | x7/3[K:bass] x5/3 | x4 | x4 | x4 | x4 | x4 | %81
 x4 | x4 | x4 | x4 | x[K:treble] x3 | x4 |[K:bass] x4 | x4 | x4 | x A,G,F, | E,D,C,B,, | x4 | %93
 x A,G,F, | x4 | x[K:treble] CB,A, |[K:bass] x4 | x3[K:treble] x |[K:bass] x2[K:treble] x2 | %99
[K:bass] x2[K:treble] x2 |[K:bass] x4/3[K:treble] x8/3 |[K:bass] x2[K:treble] x2 |[K:bass] x4 | %103
 x4 | x4 | x4 | x4 | x4 | x4 | x4 | x4 | x4 | x4 | x4 | x4 | x4 | x4 | x4 | x4 | x4 | x4 | x4 | %122
 x4 | x4 | x4 | x4 | x4 | x4 | x4 | x4 | x4 | x4 | x4 | x4 | x[K:treble] x2[K:bass] x | %135
 x[K:treble] x3 | x[K:bass] x3 | x[K:treble] x3 | x[K:bass] x3 | x4 | x4 | x4 | x4 | x4 | x4 | x4 | %146
 x4 | !arpeggio!!>![F,,A,,C,] x3 | !arpeggio!!>![F,,G,,B,,D,] x3 | !arpeggio!!>![F,,=A,,C,] x3 | %150
 !arpeggio!!>![F,,=B,,=D,] x3 | !arpeggio!!>![=E,,G,,_B,,] x3 | !arpeggio!!>![_E,,_G,,=A,,] x3 | %153
 !arpeggio!!>![=D,,F,,_A,,] x3 | !arpeggio!!>![_D,,G,,_B,,] x3 | !arpeggio!!>![C,,_E,,^F,,] x3 | %156
 !arpeggio!!>![=B,,,=F,,_A,,] x2[K:treble] x | x4 | x4 |[K:bass] x4 | x9/2 |!8vb(! x4 | x4 | %163
 x4!8vb)! | x4 | x4 | x4 | x4 | x4 | x4 | x4 | x4 | x4 | x4 | x4 | x4 | x4 | x4 | x4 | x4 | x4 | %181
 x4 | x4 | x4 |] %184
V:5
 x[K:treble] x3 | x4 |[K:bass] x4 | x[K:treble] x3 | x4 |[K:bass] x4 | x4 | x4 | x4 | %9
[K:treble] x4 | x2[K:bass] x2 |[K:treble] x4 |[K:bass] x[K:treble] x3 | x[K:bass] x3 | %14
 x[K:treble] x3 | x[K:bass] x3 | x[K:treble] x3 | x4 | x[K:bass] x3 | x[K:treble] x3 | %20
 x7/3[K:bass] x5/3 | x4 | x4 | x4 | x4 | x4 | x4 | x[K:treble] x3 | %28
[K:bass] x[K:treble] x[K:bass] x[K:treble] x |[K:bass] x4 | x2[K:treble] x2 | %31
[K:bass] x2[K:treble] x2 |[K:bass] x2[K:treble] x2 |[K:bass] x2[K:treble] x2 | %34
[K:bass] x2[K:treble] x2 |[K:bass] x2[K:treble] x2 |[K:bass] x4 | x4 | x4 | x4 | x3[K:treble] x | %41
 x4 | x[K:bass] x3 | x[K:treble] x3 | x[K:bass] x3 | x4 | x4 | x4 | x4 | x4 | x4 | x4 | x4 | x4 | %54
 x4 | x4 |[I:staff -1] !^!_G>[I:staff +1]!>![E,E] x2 | x4 | x4 | x4 | x4 | x4 | x4 | x4 | x4 | x4 | %66
 x4 | x4 | x2/3[K:treble] x10/3 |[K:bass] x2/3[K:treble] x10/3 |[K:bass] x2/3[K:treble] x10/3 | %71
[K:bass] x2/3[K:treble] x10/3 |[K:bass] x[K:treble] x3 |[K:bass] x[K:treble] x3 | %74
[K:bass] x[K:treble] x3 | x7/3[K:bass] x5/3 | x4 | x4 | x4 | x4 | x4 | x4 | x4 | x4 | x4 | %85
 x[K:treble] x3 | x4 |[K:bass] x4 | x4 | x4 | x4 | x4 | x4 | x4 | x4 | x[K:treble] x3 | %96
[K:bass] x4 | x3[K:treble] x |[K:bass] x2[K:treble] x2 |[K:bass] x2[K:treble] x2 | %100
[K:bass] x4/3[K:treble] x8/3 |[K:bass] x2[K:treble] x2 |[K:bass] x4 | x4 | x4 | x4 | x4 | x4 | x4 | %109
 x4 | x4 | x4 | x4 | x4 | x4 | x4 | x4 | x4 | x4 | x4 | x4 | x4 | x4 | x4 | x4 | x4 | x4 | x4 | %128
 x4 | x4 | x4 | x4 | x4 | x4 | x[K:treble] x2[K:bass] x | x[K:treble] x3 | x[K:bass] x3 | %137
 x[K:treble] x3 | x[K:bass] x3 | x4 | x4 | x4 | x4 | x4 | x4 | x4 | x4 | x4 | x4 | x4 | %150
[I:staff -1] !^!_A>[I:staff +1]!>![F,F] x2 | x4 | x4 | x4 | %154
[I:staff -1] !^!=E3/2[I:staff +1] !>![D,D]/ x2 | x4 | x3[K:treble] x | x4 | x4 |[K:bass] x4 | %160
 x9/2 |!8vb(! x4 | x4 | x4!8vb)! | x4 | x4 | x4 | x4 | x4 | x4 | x4 | x4 | x4 | x4 | x4 | x4 | x4 | %177
 x4 | x4 | x4 | x4 | x4 | x4 | x4 |] %184

